X: 15
T: Women bupa da laohu
%%abc-version 2.0
%%abcx-abcm2ps-target-version 5.9.1 (29 Sep 2008)
%%abc-creator hum2abc beta
%%abcx-conversion-date 2013/10/02 07:44:27
%%abc-edited-by Helmut Schaffrath
%%humdrum-veritas 3462209189
%%humdrum-veritas-data 3175898145
%%continueall 1
%%barnumbers 0
L: 1/8
M: 3/8
K: E
C C F E [I:setbarnb 1]| 
EG2 | 
[M:3/4]F F F CE2 | 
[M:2/4]F F B G | 
[M:3/8]GG2 | 
[M:2/4]G G/ E/F2 | 
E G F C | 
C4 | 
C2C C | 
[M:3/8]FG2 | 
[M:3/4]G F F GE2 | 
[M:2/4]F F B G | 
[M:3/8]GG2 | 
[M:2/4]F EF2 | 
E G F C | 
C4 |]  



